X: 20858
T: Jointure, The
R: jig
M: 6/8
K: Emajor
|:B2e eBe|fgf eBe|fgf eBc|efe e2f|
g2f e2B|(3efg f ecB|cBc eBG|1 F2E E2c:|2 F2E E2C||
|:B,2 E ECE|FGB BGB|cec BGB|cee e2f|
g2f e2B|(3efg f ecB|cBc eBG|1 F2E E2C:|2 F2E E3||

